icons/linear-ele-arrow-sort-double.svg

<svg xmlns="http://www.w3.org/2000/svg" width="32px" height="32px" viewBox="0 0 32 32" version="1.1">
    <title>linear-ele-arrow-sort-double</title>
    <g id="linear-ele-arrow-sort-double" stroke-width="1" fill-rule="evenodd">
        <path d="M13,2 C13.5522847,2 14,2.44771525 14,3 L14,27 C14,27.8909049 12.9228581,28.3370716 12.2928932,27.7071068 L3.29289322,18.7071068 C2.90236893,18.3165825 2.90236893,17.6834175 3.29289322,17.2928932 C3.68341751,16.9023689 4.31658249,16.9023689 4.70710678,17.2928932 L12,24.585 L12,3 C12,2.48716416 12.3860402,2.06449284 12.8833789,2.00672773 L13,2 Z M18,5 C18,4.10909515 19.0771419,3.66292836 19.7071068,4.29289322 L28.7071068,13.2928932 C29.0976311,13.6834175 29.0976311,14.3165825 28.7071068,14.7071068 C28.3165825,15.0976311 27.6834175,15.0976311 27.2928932,14.7071068 L20,7.414 L20,29 C20,29.5128358 19.6139598,29.9355072 19.1166211,29.9932723 L19,30 C18.4477153,30 18,29.5522847 18,29 L18,5 Z" id="&#24418;&#29366;&#32467;&#21512;" fill-rule="nonzero" />
    </g>
</svg>

<svg xmlns="http://www.w3.org/2000/svg" viewBox="0 0 32 32"><path fill="currentColor" d="M13 2a1 1 0 0 1 1 1v24c0 .89-1.077 1.337-1.707.707l-9-9a1 1 0 0 1 1.414-1.414L12 24.585V3a1 1 0 0 1 .883-.993zm5 3c0-.89 1.077-1.337 1.707-.707l9 9a1 1 0 0 1-1.414 1.414L20 7.414V29a1 1 0 0 1-.883.993L19 30a1 1 0 0 1-1-1z"/></svg>
